X: 29920
T: O'Sullivan's
R: polka
M: 2/4
K: Dmajor
|:f2 df|e/f/e/d/ BA|B>A GE|B>A GE|
f2 df|e/f/e/d/ BA|B>A G/B/d/f||ag g2:|
|:B>A GB|de/f/ gB|A>G AB|de/d/ BA|
B>A GB|de/f/ gB|AG/A/ BA|G2 G2:|

